X: 43539
T: You Rogue You Dar'n't Meddle Me
R: reel
M: 4/4
K: Adorian
AB|cABG AGEF|GABc dBGB|cABG AGED|EAAB A2:|
E2|ABcd e2ef|gefd ecAG|ABcd e2ed|eaab aedB|
ABcd edef|gefd ecAB|cABG AGED|EAAB A2||

